X: 1
T: Ceol Na Mara
M: 9/8
L: 1/8
R: slip jig
K: Dmaj
D3 F3 A2d|BAF E3 FEF|D3 F3 A2d|BAF F2A B2A:|
B3 B2d edB|F3 F2A BAF|A3 ABd edd|f3 a3 fed|
B3 B2d edB|F3 F2A BAF|AFE EFD D2D|AFE EFA B2A|
